!!!COM: Palestrina, Giovanni Perluigi da
!!!OPR: Missa In duplicibus minoribus (II)
!!!OMD: Credo
!!!OTL: Et incarnatus
**kern	**kern	**kern	**kern	**kern
*Ibass	*Itenor	*Itenor	*Icalto	*Icant
!Bassus	!Tenor 2	!Tenor 1	!Altus	!Cantus
*clefF4	*clefGv2	*clefGv2	*clefG2	*clefG2
*k[]	*k[]	*k[]	*k[]	*k[]
*E:phr	*E:phr	*E:phr	*E:phr	*E:phr
*M4/2	*M4/2	*M4/2	*M4/2	*M4/2
=54	=54	=54	=54	=54
0A	0c	0r	0e	0a
=55	=55	=55	=55	=55
1E	1B	0r	1e	1g#
1F	1A	.	2c	1a
.	.	.	[2f	.
=56	=56	=56	=56	=56
1C	1c	1r	2f]	1g
.	.	.	2e	.
1D	2A	[1A	1d	1f
.	2D	.	.	.
=57	=57	=57	=57	=57
0E	1r	1A]	2c	0e
.	.	.	4B	.
.	.	.	4A	.
.	2r	1G#	2B	.
.	2E	.	2e	.
=58	=58	=58	=58	=58
0r	2c	1A	2e	1r
.	2c	.	1f	.
.	1B	1G	.	2r
.	.	.	[2e	2e
=59	=59	=59	=59	=59
1r	1A	1F	2e]	1a
.	.	.	2d	.
2r	1B	1E	1e	1g
2E	.	.	.	.
=60	=60	=60	=60	=60
1A	2r	0r	1e	2a
.	2A	.	.	1cc
1G	1d	.	2g	.
.	.	.	2g	[2b
=61	=61	=61	=61	=61
1A	1c	0r	2f	4b]
.	.	.	.	4a
.	.	.	1e	1a
1B	1d	.	.	.
.	.	.	[2d	2g#
=62	=62	=62	=62	=62
1A	1e	1r	2d]	0a
.	.	.	4c	.
.	.	.	4B	.
[1A	1e	2r	2c	.
.	.	[2c	[2e	.
=63	=63	=63	=63	=63
2A]	0r	2c]	2e]	0r
2G	.	2B	2e	.
2F	.	2A	2d	.
2E	.	2G	2c	.
=64	=64	=64	=64	=64
2F	1r	2A	2d	1r
2G	.	2B	2d	.
1A	[1e	2c	1c	2r
.	.	[2c	.	[2cc
=65	=65	=65	=65	=65
0r	2e]	2c]	2.g	2cc]
.	2d	2G	.	2b
.	.	.	4f	.
.	2c	2A	2e	2a
.	2B	2E	2e	2g#
=66	=66	=66	=66	=66
0r	2c	2A	2f	2a
.	2d	2G	2g	2b
.	1e	1C	1g	1cc
=67	=67	=67	=67	=67
0AA	0c#	2r	0e	0a
.	.	1E	.	.
.	.	[2A	.	.
=68	=68	=68	=68	=68
0D	0d	4A]	0f	0a
.	.	4G	.	.
.	.	4F	.	.
.	.	4E	.	.
.	.	2.F	.	.
.	.	4G	.	.
=69	=69	=69	=69	=69
0AA	1c	2A	1e	0a
.	.	1A	.	.
.	[1c	.	[1e	.
.	.	4G	.	.
.	.	4F	.	.
=70	=70	=70	=70	=70
0C	2c]	1E	2e]	0g
.	4B	.	4d	.
.	4A	.	4c	.
.	2G	2.c	1e	.
.	2E	.	.	.
.	.	4B	.	.
=71	=71	=71	=71	=71
0D	1F	0A	0d	0f
.	1D	.	.	.
=72	=72	=72	=72	=72
0AA	[0E	0A	0c	[0e
=73	=73	=73	=73	=73
[0E	1E_	[0G#	[0B	1e_
.	1E_	.	.	1e_
=74	=74	=74	=74	=74
0E]	0E]	0G#]	0B]	0e]
*-	*-	*-	*-	*-
!!!CDT: 1525/^1526/-1594/2/2
!!!OCY: Italia
!!!AGN: Mass (Paraphrase)
!!!AST: renaissance, vocal
!!!ASW: Gregorian Mass
!!!PWK: Masses, Book Mantuan I
!!!RNB: Cadence finals: A
!!!YOR: Le Opere Complete, v. 18, p. 1
!!!YOO: Rome, Italy: Fratelli Scalera
!!!END: 1992//
!!!EED: John Miller
!!!YEC: Copyright 2000, John Miller
!!!YEN: United States of America
!!!YEM: Rights to all derivative electronic formats reserved.
!!!YEM: Refer to licensing agreement for further details.
!!!YEM: This file must be accompanied by the licensing agreement.
!!!YEM: A copy of the licensing agreement may be found at http://www.music-cog.ohio-state.edu/HumdrumDatabases/Palestrina/license.txt
!!!EMD: converted to Humdrum by Bret Aarden
